X:1
T:Amazing Grace
C:John Newton / New Britain tune, public domain
S:Public domain or original as noted in notes.md
M:3/4
L:1/8
Q:1/4=66
K:Amix
H:A mixolydian starter arrangement for Great Highland Bagpipe. Refs #1
A2 d4 | f2 e2 d2 | f4 e2 | d6 |
f2 a4 | a2 f2 d2 | f4 e2 | d6 |
f2 a4 | a2 f2 d2 | f4 e2 | d4 A2 |
A2 d4 | f2 e2 d2 | f4 e2 | d6 |]
